X: 42198
T: Waukglen
R: jig
M: 6/8
K: Eminor
e2b bag|bag ~f3|eba bag|~f3agf|
e2b bag|bag ~f3|edB ~c3|de/f/g fdB:|
|:~c3 ABc|de/f/g fdB|e2b bag|~f3 fed|
~c3 ABc|de/f/g fdB|1 ~e3 gfd|e2g- gfd:|2 ~e3 efg|afc' bgf||

